icons/modern/dvd.svg

<svg width="32" height="32" viewBox="0 0 32 32" fill="none" xmlns="http://www.w3.org/2000/svg">
<path fill-rule="evenodd" clip-rule="evenodd" d="M16.1881 30.0166C23.9293 30.0166 30.2047 23.7412 30.2047 16C30.2047 8.25885 23.9293 1.9834 16.1881 1.9834C8.44696 1.9834 2.17151 8.25885 2.17151 16C2.17151 23.7412 8.44696 30.0166 16.1881 30.0166ZM16.1881 19.3118C18.0172 19.3118 19.5 17.8291 19.5 16C19.5 14.1709 18.0172 12.6882 16.1881 12.6882C14.3591 12.6882 12.8763 14.1709 12.8763 16C12.8763 17.8291 14.3591 19.3118 16.1881 19.3118Z" fill="url(#paint0_linear_18_19871)"/>
<path fill-rule="evenodd" clip-rule="evenodd" d="M16.1881 30.0166C23.9293 30.0166 30.2047 23.7412 30.2047 16C30.2047 8.25885 23.9293 1.9834 16.1881 1.9834C8.44696 1.9834 2.17151 8.25885 2.17151 16C2.17151 23.7412 8.44696 30.0166 16.1881 30.0166ZM16.1881 19.3118C18.0172 19.3118 19.5 17.8291 19.5 16C19.5 14.1709 18.0172 12.6882 16.1881 12.6882C14.3591 12.6882 12.8763 14.1709 12.8763 16C12.8763 17.8291 14.3591 19.3118 16.1881 19.3118Z" fill="url(#paint1_radial_18_19871)"/>
<path fill-rule="evenodd" clip-rule="evenodd" d="M16.1881 30.0166C23.9293 30.0166 30.2047 23.7412 30.2047 16C30.2047 8.25885 23.9293 1.9834 16.1881 1.9834C8.44696 1.9834 2.17151 8.25885 2.17151 16C2.17151 23.7412 8.44696 30.0166 16.1881 30.0166ZM16.1881 19.3118C18.0172 19.3118 19.5 17.8291 19.5 16C19.5 14.1709 18.0172 12.6882 16.1881 12.6882C14.3591 12.6882 12.8763 14.1709 12.8763 16C12.8763 17.8291 14.3591 19.3118 16.1881 19.3118Z" fill="url(#paint2_radial_18_19871)"/>
<path fill-rule="evenodd" clip-rule="evenodd" d="M16.1881 30.0166C23.9293 30.0166 30.2047 23.7412 30.2047 16C30.2047 8.25885 23.9293 1.9834 16.1881 1.9834C8.44696 1.9834 2.17151 8.25885 2.17151 16C2.17151 23.7412 8.44696 30.0166 16.1881 30.0166ZM16.1881 19.3118C18.0172 19.3118 19.5 17.8291 19.5 16C19.5 14.1709 18.0172 12.6882 16.1881 12.6882C14.3591 12.6882 12.8763 14.1709 12.8763 16C12.8763 17.8291 14.3591 19.3118 16.1881 19.3118Z" fill="url(#paint3_radial_18_19871)"/>
<g filter="url(#filter0_f_18_19871)">
<path fill-rule="evenodd" clip-rule="evenodd" d="M16.1881 29.1159C23.4318 29.1159 29.304 23.2437 29.304 16C29.304 8.75625 23.4318 2.88403 16.1881 2.88403C8.94436 2.88403 3.07214 8.75625 3.07214 16C3.07214 23.2437 8.94436 29.1159 16.1881 29.1159ZM19.9596 16C19.9596 17.8291 18.0172 19.9029 16.1881 19.9029C14.359 19.9029 12.1914 17.8291 12.1914 16C12.1914 14.1709 14.359 11.9845 16.1881 11.9845C18.0172 11.9845 19.9596 14.1709 19.9596 16Z" fill="url(#paint4_linear_18_19871)"/>
</g>
<path fill-rule="evenodd" clip-rule="evenodd" d="M16.1881 20.3392C18.5846 20.3392 20.5273 18.3965 20.5273 16C20.5273 13.6036 18.5846 11.6609 16.1881 11.6609C13.7917 11.6609 11.849 13.6036 11.849 16C11.849 18.3965 13.7917 20.3392 16.1881 20.3392ZM19.5 16C19.5 17.8291 18.0172 19.3119 16.1881 19.3119C14.3591 19.3119 12.8763 17.8291 12.8763 16C12.8763 14.171 14.3591 12.6882 16.1881 12.6882C18.0172 12.6882 19.5 14.171 19.5 16Z" fill="url(#paint5_radial_18_19871)"/>
<g filter="url(#filter1_f_18_19871)">
<path d="M12.8942 13.1752C13.69 12.2481 14.8705 11.6608 16.1881 11.6608C17.4006 11.6608 18.497 12.1582 19.2844 12.96L25.0673 7.1771C25.3013 6.9431 25.3028 6.5628 25.0591 6.33891C22.724 4.19366 19.609 2.88403 16.1881 2.88403C12.5662 2.88403 9.28725 4.35209 6.91373 6.72561C6.83554 6.8038 6.75834 6.88298 6.68213 6.96311L12.8942 13.1752Z" fill="url(#paint6_linear_18_19871)"/>
</g>
<g filter="url(#filter2_f_18_19871)">
<path d="M19.0129 19.2939C18.2538 19.9455 17.2669 20.3392 16.1881 20.3392C15.0042 20.3392 13.931 19.8651 13.1481 19.0963L7.36778 24.8767C7.13279 25.1117 7.13246 25.494 7.37861 25.7172C9.70676 27.8292 12.7972 29.116 16.1881 29.116C19.3572 29.116 22.2639 27.992 24.5311 26.121C24.7696 25.9241 25.001 25.719 25.225 25.506L19.0129 19.2939Z" fill="url(#paint7_linear_18_19871)"/>
</g>
<g filter="url(#filter3_f_18_19871)">
<path d="M16.1881 20.3642C18.5984 20.3642 20.5523 18.4103 20.5523 16C20.5523 13.5898 18.5984 11.6359 16.1881 11.6359C13.7779 11.6359 11.824 13.5898 11.824 16C11.824 18.4103 13.7779 20.3642 16.1881 20.3642Z" stroke="#EFA141" stroke-width="0.05"/>
</g>
<defs>
<filter id="filter0_f_18_19871" x="2.82214" y="2.63403" width="26.7319" height="26.7319" filterUnits="userSpaceOnUse" color-interpolation-filters="sRGB">
<feFlood flood-opacity="0" result="BackgroundImageFix"/>
<feBlend mode="normal" in="SourceGraphic" in2="BackgroundImageFix" result="shape"/>
<feGaussianBlur stdDeviation="0.125" result="effect1_foregroundBlur_18_19871"/>
</filter>
<filter id="filter1_f_18_19871" x="6.43213" y="2.63403" width="19.0602" height="10.7911" filterUnits="userSpaceOnUse" color-interpolation-filters="sRGB">
<feFlood flood-opacity="0" result="BackgroundImageFix"/>
<feBlend mode="normal" in="SourceGraphic" in2="BackgroundImageFix" result="shape"/>
<feGaussianBlur stdDeviation="0.125" result="effect1_foregroundBlur_18_19871"/>
</filter>
<filter id="filter2_f_18_19871" x="6.94275" y="18.8463" width="18.5322" height="10.5197" filterUnits="userSpaceOnUse" color-interpolation-filters="sRGB">
<feFlood flood-opacity="0" result="BackgroundImageFix"/>
<feBlend mode="normal" in="SourceGraphic" in2="BackgroundImageFix" result="shape"/>
<feGaussianBlur stdDeviation="0.125" result="effect1_foregroundBlur_18_19871"/>
</filter>
<filter id="filter3_f_18_19871" x="11.699" y="11.5108" width="8.97832" height="8.97832" filterUnits="userSpaceOnUse" color-interpolation-filters="sRGB">
<feFlood flood-opacity="0" result="BackgroundImageFix"/>
<feBlend mode="normal" in="SourceGraphic" in2="BackgroundImageFix" result="shape"/>
<feGaussianBlur stdDeviation="0.05" result="effect1_foregroundBlur_18_19871"/>
</filter>
<linearGradient id="paint0_linear_18_19871" x1="16.1881" y1="1.9834" x2="16.1881" y2="30.0166" gradientUnits="userSpaceOnUse">
<stop stop-color="#E9CE53"/>
<stop offset="1" stop-color="#FF974E"/>
</linearGradient>
<radialGradient id="paint1_radial_18_19871" cx="0" cy="0" r="1" gradientUnits="userSpaceOnUse" gradientTransform="translate(17.4078 11.3466) rotate(113.08) scale(20.2945 17.7684)">
<stop offset="0.867949" stop-color="#FF684C" stop-opacity="0"/>
<stop offset="0.986913" stop-color="#FF684C"/>
</radialGradient>
<radialGradient id="paint2_radial_18_19871" cx="0" cy="0" r="1" gradientUnits="userSpaceOnUse" gradientTransform="translate(22.4734 20.2061) rotate(-148.057) scale(22.9355 17.9161)">
<stop offset="0.886595" stop-color="#B99C5E" stop-opacity="0"/>
<stop offset="0.978574" stop-color="#B99C5E"/>
</radialGradient>
<radialGradient id="paint3_radial_18_19871" cx="0" cy="0" r="1" gradientUnits="userSpaceOnUse" gradientTransform="translate(12.6239 18.315) rotate(-37.4054) scale(18.5493)">
<stop offset="0.894403" stop-color="#FFE86D" stop-opacity="0"/>
<stop offset="0.991068" stop-color="#FFE86D"/>
</radialGradient>
<linearGradient id="paint4_linear_18_19871" x1="16.1881" y1="8.41938" x2="16.1881" y2="29.1159" gradientUnits="userSpaceOnUse">
<stop stop-color="#F4BD5B"/>
<stop offset="1" stop-color="#FF9E54"/>
</linearGradient>
<radialGradient id="paint5_radial_18_19871" cx="0" cy="0" r="1" gradientUnits="userSpaceOnUse" gradientTransform="translate(12.7544 16) scale(9.23183)">
<stop offset="0.62037" stop-color="#F8AE59"/>
<stop offset="1" stop-color="#D48B52"/>
</radialGradient>
<linearGradient id="paint6_linear_18_19871" x1="25.2423" y1="6.91827" x2="11.9287" y2="6.91827" gradientUnits="userSpaceOnUse">
<stop stop-color="#FFF25C"/>
<stop offset="1" stop-color="#FFF25C" stop-opacity="0"/>
</linearGradient>
<linearGradient id="paint7_linear_18_19871" x1="11.3658" y1="19.9405" x2="18.7963" y2="22.1921" gradientUnits="userSpaceOnUse">
<stop stop-color="#FFD05A"/>
<stop offset="1" stop-color="#FFD05A" stop-opacity="0"/>
</linearGradient>
</defs>
</svg>

<svg width="32" height="32" fill="none" xmlns="http://www.w3.org/2000/svg"><path fill-rule="evenodd" clip-rule="evenodd" d="M16.188 30.017c7.741 0 14.017-6.276 14.017-14.017S23.929 1.983 16.188 1.983 2.172 8.26 2.172 16s6.275 14.017 14.016 14.017Zm0-10.705a3.312 3.312 0 1 0 0-6.624 3.312 3.312 0 0 0 0 6.624Z" fill="url(#a)"/><path fill-rule="evenodd" clip-rule="evenodd" d="M16.188 30.017c7.741 0 14.017-6.276 14.017-14.017S23.929 1.983 16.188 1.983 2.172 8.26 2.172 16s6.275 14.017 14.016 14.017Zm0-10.705a3.312 3.312 0 1 0 0-6.624 3.312 3.312 0 0 0 0 6.624Z" fill="url(#b)"/><path fill-rule="evenodd" clip-rule="evenodd" d="M16.188 30.017c7.741 0 14.017-6.276 14.017-14.017S23.929 1.983 16.188 1.983 2.172 8.26 2.172 16s6.275 14.017 14.016 14.017Zm0-10.705a3.312 3.312 0 1 0 0-6.624 3.312 3.312 0 0 0 0 6.624Z" fill="url(#c)"/><path fill-rule="evenodd" clip-rule="evenodd" d="M16.188 30.017c7.741 0 14.017-6.276 14.017-14.017S23.929 1.983 16.188 1.983 2.172 8.26 2.172 16s6.275 14.017 14.016 14.017Zm0-10.705a3.312 3.312 0 1 0 0-6.624 3.312 3.312 0 0 0 0 6.624Z" fill="url(#d)"/><g filter="url(#e)"><path fill-rule="evenodd" clip-rule="evenodd" d="M16.188 29.116c7.244 0 13.116-5.872 13.116-13.116S23.432 2.884 16.188 2.884 3.072 8.756 3.072 16s5.872 13.116 13.116 13.116ZM19.96 16c0 1.83-1.943 3.903-3.772 3.903-1.829 0-3.997-2.074-3.997-3.903 0-1.83 2.168-4.015 3.997-4.015 1.83 0 3.772 2.186 3.772 4.015Z" fill="url(#f)"/></g><path fill-rule="evenodd" clip-rule="evenodd" d="M16.188 20.34a4.34 4.34 0 1 0 0-8.68 4.34 4.34 0 0 0 0 8.68ZM19.5 16a3.312 3.312 0 1 1-6.624 0 3.312 3.312 0 0 1 6.624 0Z" fill="url(#g)"/><g filter="url(#h)"><path d="M12.894 13.175a4.33 4.33 0 0 1 3.294-1.514c1.213 0 2.309.497 3.096 1.299l5.783-5.783a.58.58 0 0 0-.008-.838 13.069 13.069 0 0 0-8.87-3.455 13.075 13.075 0 0 0-9.507 4.08l6.212 6.211Z" fill="url(#i)"/></g><g filter="url(#j)"><path d="M19.013 19.294a4.322 4.322 0 0 1-2.825 1.045 4.325 4.325 0 0 1-3.04-1.243l-5.78 5.78a.58.58 0 0 0 .01.841 13.068 13.068 0 0 0 8.81 3.399 13.063 13.063 0 0 0 9.037-3.61l-6.212-6.212Z" fill="url(#k)"/></g><g filter="url(#l)"><path d="M16.188 20.364a4.364 4.364 0 1 0 0-8.728 4.364 4.364 0 0 0 0 8.728Z" stroke="#EFA141" stroke-width=".05"/></g><defs><radialGradient id="b" cx="0" cy="0" r="1" gradientUnits="userSpaceOnUse" gradientTransform="matrix(-7.95577 18.6701 -16.34619 -6.9655 17.408 11.347)"><stop offset=".868" stop-color="#FF684C" stop-opacity="0"/><stop offset=".987" stop-color="#FF684C"/></radialGradient><radialGradient id="c" cx="0" cy="0" r="1" gradientUnits="userSpaceOnUse" gradientTransform="rotate(-148.057 14.128 6.887) scale(22.9355 17.9161)"><stop offset=".887" stop-color="#B99C5E" stop-opacity="0"/><stop offset=".979" stop-color="#B99C5E"/></radialGradient><radialGradient id="d" cx="0" cy="0" r="1" gradientUnits="userSpaceOnUse" gradientTransform="rotate(-37.405 33.362 -9.487) scale(18.5493)"><stop offset=".894" stop-color="#FFE86D" stop-opacity="0"/><stop offset=".991" stop-color="#FFE86D"/></radialGradient><radialGradient id="g" cx="0" cy="0" r="1" gradientUnits="userSpaceOnUse" gradientTransform="translate(12.754 16) scale(9.23183)"><stop offset=".62" stop-color="#F8AE59"/><stop offset="1" stop-color="#D48B52"/></radialGradient><linearGradient id="a" x1="16.188" y1="1.983" x2="16.188" y2="30.017" gradientUnits="userSpaceOnUse"><stop stop-color="#E9CE53"/><stop offset="1" stop-color="#FF974E"/></linearGradient><linearGradient id="f" x1="16.188" y1="8.419" x2="16.188" y2="29.116" gradientUnits="userSpaceOnUse"><stop stop-color="#F4BD5B"/><stop offset="1" stop-color="#FF9E54"/></linearGradient><linearGradient id="i" x1="25.242" y1="6.918" x2="11.929" y2="6.918" gradientUnits="userSpaceOnUse"><stop stop-color="#FFF25C"/><stop offset="1" stop-color="#FFF25C" stop-opacity="0"/></linearGradient><linearGradient id="k" x1="11.366" y1="19.941" x2="18.796" y2="22.192" gradientUnits="userSpaceOnUse"><stop stop-color="#FFD05A"/><stop offset="1" stop-color="#FFD05A" stop-opacity="0"/></linearGradient><filter id="e" x="2.822" y="2.634" width="26.732" height="26.732" filterUnits="userSpaceOnUse" color-interpolation-filters="sRGB"><feFlood flood-opacity="0" result="BackgroundImageFix"/><feBlend in="SourceGraphic" in2="BackgroundImageFix" result="shape"/><feGaussianBlur stdDeviation=".125" result="effect1_foregroundBlur_18_19871"/></filter><filter id="h" x="6.432" y="2.634" width="19.06" height="10.791" filterUnits="userSpaceOnUse" color-interpolation-filters="sRGB"><feFlood flood-opacity="0" result="BackgroundImageFix"/><feBlend in="SourceGraphic" in2="BackgroundImageFix" result="shape"/><feGaussianBlur stdDeviation=".125" result="effect1_foregroundBlur_18_19871"/></filter><filter id="j" x="6.943" y="18.846" width="18.532" height="10.52" filterUnits="userSpaceOnUse" color-interpolation-filters="sRGB"><feFlood flood-opacity="0" result="BackgroundImageFix"/><feBlend in="SourceGraphic" in2="BackgroundImageFix" result="shape"/><feGaussianBlur stdDeviation=".125" result="effect1_foregroundBlur_18_19871"/></filter><filter id="l" x="11.699" y="11.511" width="8.978" height="8.978" filterUnits="userSpaceOnUse" color-interpolation-filters="sRGB"><feFlood flood-opacity="0" result="BackgroundImageFix"/><feBlend in="SourceGraphic" in2="BackgroundImageFix" result="shape"/><feGaussianBlur stdDeviation=".05" result="effect1_foregroundBlur_18_19871"/></filter></defs></svg>
